X:283
T:Off to the Races
M:C|
C:© Paul Gitlitz 2009
R:reel
K:D
"D"dAFA dAFA|dAFA d3e|"Bb"=f_BAB f_BAB|=f_BAB f3e|!
"D"dAFA dAFA|dAFA d3e|"D"fefg "Bm"fedB|"A7"AFED- "D"DABc:|!
|:"Bm"B2Bc "D/A"BAFA|"Bm"Bedc "D"def2|"Em"gfeg "D"fedf|"A"e2ef  "A/E"edcA|!
"Bm"B2Bc "D/A"BAFA|"Bm"Bcde "D"f4|"G"gdBg "F#m"fcAf|1"A"efec "D"d2dc:|2"A"efec "D"d4 |]
